src/svgs/top-records.svg

<svg xmlns="http://www.w3.org/2000/svg" viewBox="0 0 24 24" width="512" height="512" aria-labelledby="mptop-records-desc mptop-records-title"><title id="mptop-records-title">Top Records Icon</title><desc id="mptop-records-desc">Shows records positioned at the top.</desc><path d="M12 14l4 4h-3v4h-2v-4H8zm0-8H8v2h4zm4 4H8v2h8zm2-8H6a2 2 0 00-2 2v16a2 2 0 002 2h3v-2H6V4h12v16h-3v2h3a2 2 0 002-2V4a2 2 0 00-2-2z"/></svg>

<svg xmlns="http://www.w3.org/2000/svg" viewBox="0 0 24 24"><path d="M12,14l4,4H13v4H11V18H8Zm0-8H8V8h4Zm4,4H8v2h8Zm2-8H6A2,2,0,0,0,4,4V20a2,2,0,0,0,2,2H9V20H6V4H18V20H15v2h3a2,2,0,0,0,2-2V4A2,2,0,0,0,18,2Z"/></svg>
